icons/svgs/ban-outline.svg

<svg width="24" height="24" viewBox="0 0 24 24" fill="none" xmlns="http://www.w3.org/2000/svg">
<path d="M17.0391 18.4062L5.59375 6.96094C4.5 8.36719 3.875 10.125 3.875 12C3.875 16.4922 7.50781 20.125 12 20.125C13.875 20.125 15.6328 19.5 17.0391 18.4062ZM18.3672 17.0781C19.4609 15.6719 20.125 13.9141 20.125 12C20.125 7.54688 16.4531 3.875 12 3.875C10.0859 3.875 8.32812 4.53906 6.92188 5.63281L18.3672 17.0781ZM2 12C2 8.44531 3.875 5.16406 7 3.36719C10.0859 1.57031 13.875 1.57031 17 3.36719C20.0859 5.16406 22 8.44531 22 12C22 15.5938 20.0859 18.875 17 20.6719C13.875 22.4688 10.0859 22.4688 7 20.6719C3.875 18.875 2 15.5938 2 12Z" fill="black"/>
</svg>

<svg xmlns="http://www.w3.org/2000/svg" width="24" height="24" fill="currentColor" class="icon-ban-outline" viewBox="0 0 24 24">
  <mask id="a" width="20" height="21" x="2" y="2" maskUnits="userSpaceOnUse" style="mask-type:alpha">
    <path d="M17.04 18.406 5.593 6.961A8.2 8.2 0 0 0 3.875 12 8.12 8.12 0 0 0 12 20.125a8.2 8.2 0 0 0 5.04-1.719m1.327-1.328A8.25 8.25 0 0 0 20.125 12c0-4.453-3.672-8.125-8.125-8.125a8.25 8.25 0 0 0-5.078 1.758zM2 12a9.93 9.93 0 0 1 5-8.633c3.086-1.797 6.875-1.797 10 0 3.086 1.797 5 5.078 5 8.633 0 3.594-1.914 6.875-5 8.672-3.125 1.797-6.914 1.797-10 0C3.875 18.875 2 15.594 2 12"/>
  </mask>
  <g mask="url(#a)">
    <path d="M0 0h24v24H0z"/>
  </g>
</svg>
